svg/fluentui-system-icons/ic_fluent_arrow_clockwise_20_filled.svg

<svg width="20" height="20" viewBox="0 0 20 20" fill="none" xmlns="http://www.w3.org/2000/svg">
<path d="M10.6278 2.02507C6.22317 1.67841 2.37147 4.96807 2.02482 9.37273C1.67816 13.7774 4.96782 17.6291 9.37248 17.9757C13.7771 18.3224 17.6288 15.0327 17.9755 10.6281C17.9978 10.3446 18.0041 10.04 17.995 9.73892C17.9826 9.3249 17.6369 8.99932 17.2229 9.01173C16.8089 9.02414 16.4833 9.36984 16.4957 9.78387C16.5032 10.0325 16.498 10.283 16.4801 10.5104C16.1985 14.0892 13.069 16.762 9.49017 16.4804C5.91138 16.1987 3.23853 13.0692 3.52019 9.49042C3.80185 5.91164 6.93135 3.23878 10.5101 3.52044C12.2464 3.65709 13.8159 4.4709 14.9225 5.75512L15.126 6.003L12.7472 6.00387L12.6455 6.01072C12.2794 6.06038 11.9972 6.37417 11.9972 6.75387C11.9972 7.13356 12.2794 7.44736 12.6455 7.49702L12.7472 7.50387H16.7472L16.8489 7.49702C17.1817 7.45187 17.4452 7.18844 17.4903 6.85564L17.4972 6.75387V2.75387L17.4903 2.6521C17.4452 2.3193 17.1817 2.05586 16.8489 2.01072L16.7472 2.00387L16.6454 2.01072C16.3126 2.05586 16.0492 2.3193 16.004 2.6521L15.9972 2.75387L15.9984 4.70662C14.6405 3.16672 12.7325 2.1907 10.6278 2.02507Z" fill="#212121"/>
</svg>

<svg xmlns="http://www.w3.org/2000/svg" width="20" height="20"><path d="M10.628 2.025a8 8 0 1 0 7.367 7.714.75.75 0 1 0-1.5.045 6.5 6.5 0 1 1-1.573-4.029l.204.248h-2.379l-.101.008a.75.75 0 0 0 0 1.486l.101.007h4l.102-.007a.75.75 0 0 0 .641-.641l.007-.102v-4l-.007-.102a.75.75 0 0 0-.641-.641l-.102-.007-.102.007a.75.75 0 0 0-.641.641l-.007.102.001 1.953a7.977 7.977 0 0 0-5.37-2.682Z"/></svg>
